X:1
T:3 Browning songs, Op. 44
T:Ah, Love, but a Day!
T:Browning Society of Boston 
T:3 Browning Songs, Op. 44
T:Amy Marcy Beach
T:2. Ah, Love, but a Day!
T:Robert Browning
T:Creative Commons copyright waiver (CC0 1.0 Universal)
T:Creative Commons copyright waiver (CC0 1.0 Universal)
T:Creative Commons copyright waiver (CC0 1.0 Universal)
T:Creative Commons copyright waiver (CC0 1.0 Universal)
C:Amy Marcy Beach
Z:Creative Commons copyright waiver (CC0 1.0 Universal)
%%score ( 1 2 ) { ( 3 5 ) | ( 4 6 ) }
L:1/8
Q:1/4=52
M:4/4
K:Ab
V:1 treble nm="Voice"
V:2 treble 
V:3 treble nm="Piano"
V:5 treble 
V:4 bass 
V:6 bass 
V:1
"^Lento con molto espressione." z8 | z4 z2!p! c2 | f6 (3(Bc) d | (e4 c2) B A | d6 c2 | %5
w: |Ah,|Love, but * a|day, _ And the|world has|
 c4- c z z!mf! c |!<(! a6 (3(=de) f!<)! |!>(! (g2 e4)!>)!!mp! =d c | (f4!>(! =B3) B!>)! | %9
w: changed! _ Ah,|Love, but * a|day, _ And the|world _ has|
!>(! c4-!>)![Q:1/4=54] c z z2 |!p![Q:1/4=58] z"^cresc. e agitato" A B3/2 c/ !tenuto!.B2 A B | %11
w: changed! _|The sun's a- way, And the|
 c3 c d4 |[Q:1/4=60] z A B3/2!<(! _c/ !tenuto!.B2 A B | =B3 B!<)! f4- | f z!f! f4 c z | %15
w: bird es- tranged;|The wind has dropped, And the|sky's de- ranged;|_ Sum- mer,|
 d4"^dim." d3 d | c8- | c z"^rit."[Q:1/4=56]!>(! c4!>)!!pp![Q:1/4=54] c c | %18
w: Sum- mer has|stopped,|_ Sum- mer has|
"^a tempo" c6 z2[Q:1/4=52]"^.5" | z4 z2!f! f2 | a8- || %21
w: stopped.|Ah,|Love,|
[M:6/4] a2"^ritenuto molto" (3(=ef) c !breath!d2!>(! =E F A3!>)!!pp! G ||[M:4/4]"^a tempo" F8- | %23
w: _ but * a day, And the world has|changed!|
 F2 z2 z4 | z8 |!pp!!<(! f6 (3(=Bc) =d!<)! |!p!!>(! (=e4!>)! =d) z c2 |!>(! (=A4 =d2) A2!>)! | %28
w: _||Look in * my|eyes! _ Wilt|thou _ change|
 c6 z2 |"^dolcissimo"!p!!<(! f6 (3(Bc) d!<)! |!<(! (e2 a2 !breath!g2)!<)! f2 | %31
w: too?|Look in * my|eyes! _ _ Wilt|
 (=e2!>(! f4) =B2!>)! | c4-[Q:1/4=55] c z!mp!"^cresc." E E | (A2 B) c B2 A B | c2 A2 _f2 (3z A A | %35
w: thou _ change|too? _ Should I|fear _ sur- prise? Shall I|find aught new In the|
 (A2 B)"^accel." _c!<(! B2[Q:1/4=58] A B!<)! |!mf! =B3 B[Q:1/4=60] f4- || %37
w: old _ and dear, In the|good and true,|
[K:F][Q:1/4=58] f z!f! A B c3 ^c |!<(! (d4 e)!<)! z z!ff! f |[Q:1/4=54] a8- | %40
w: _ With the chang- ing|year? _ Ah,|Love,|
"^The second fermata looks strange.  I think\nthere 'ought' to be a rest for it to apply to, \nwhich I would probably add if I were\nediting rather that transcribing\n" !breath!!fermata!a2!f! f4 e d | %41
w: _ Look in my|
!mf!"^dim." f8- | f3 z"^rit. e sempre"!mp![Q:1/4=52] _d2 d d |!mp!"^dim." c8- | %44
w: eyes!|_ Look in my|eyes!|
 c z"^molto rit."!p![Q:1/4=44]!>(! c2 c2 c2!>)! |!pp![Q:1/4=48]!<(! c8-!<)! | c8- | %47
w: _ Wilt thou change|too?|_|
!>(! !fermata!c8!>)! |] %48
w: |
V:2
 x8 | x8 | x8 | x8 | x8 | x8 | x8 | x8 | x8 | x8 | x8 | x8 | x8 | x8 | x8 | x8 | x4 x2!>(! x2 | %17
 x!>)! x7 | x8 | x8 | x8 ||[M:6/4] x12 ||[M:4/4] x8 | x8 | x8 | x8 | x8 | x8 | x8 | x8 | x8 | x8 | %32
 x8 | x8 | x8 | x8 | x8 ||[K:F] x8 | x8 | x8 | !fermata!x2 x6 | x8 | x8 | x8 | x8 | x4!>(! x4 | %46
 x4"^morendo" x4!>)! | x8 |] %48
V:3
 z2!pp! [Ac]4!<(! (3[GB]AB!<)! |!p!!>(! c4 c4!>)! | (c2 Bc [FGd]2) [EG]2 | (B2 AG) (BABA) | %4
 ([DFA]2 GF) (AGA=E) |!<(! (GF=EF!<)! C!mp!!<(!cBA)!<)! |!mf! ([F-A-c]2 [FA=B]c [FAf]2) [AB]2 | %7
 ([G-=d]2 [Gc]e) [cec']2 a2 |!>(! [F-ef]2 [Fd]c!>)!!pp! ([F=Bg]3 f) | [=Ec=e-]2 [EGe]4 ([E=B]c) | %10
!p!"_cresc. e agitato" [_FA][FA] z [FA] [FAB][FAB] z [FAB] | %11
 [CAc][CAc] z [CAc] [DAd][DAd] z [DAd] | [=DA=d][DAd] z!<(! [DAd] [Ee][Ee] z [Ee] | %13
 [=EA=e][EAe] z [EAe] [FA=Bf]!<)![FABf] z [GBfg] |!f! [Acfa]2 (fd"_sostenuto" [Fc])[Fc] z ([Fc] | %15
 d2 F2 _G2 =G2 | [Cc])[Cc] z [Cc] [C=D][CD] z!>(! [CD] | [CE][CE] z [CE] [B,=E][B,E] z [B,E]!>)! | %18
"^a tempo"!pp!!<(! =EF [Ac]4 (3[GB]AB!<)! | %19
!p! !tenuto!.[Ac]"_cresc."[Ac][Gc=d][Gce] [Fce][Fcf][F_df][FA] | %20
!f! ([Adfa]2 [Gdg][Ff]) [d_fa]fed || %21
[M:6/4] [C=Ec][CEc] z"_dim." [CFc] [DFBd][DFBd] z [B,DF]!pp!!<(! [B,DE][CE] [Ec-]2 || %22
[M:4/4] [CAc]2!<)!!mp! [cac']4 (3(bab) | [cfc']2 (3(gfg)!>(! (3([da]fd (3AFD)!>)! | %24
!p!!>(! (3A,[A,DF][A,DF] (3[=A,DF][A,DF][A,DF] (3[B,FG][B,FG][B,FG]!>)!!pp! (3[=B,FA][B,FA][B,FA] | %25
"_legatissimo" (3([C=A]F[CA] (3F[CA]F) (3([=B,^G]F[B,G] (3F[B,G]F) | %26
 (3([_B,=G]C[B,G] (3C[B,G]C) (3([B,^G]=E[B,G] (3E[B,G]E) | %27
 (3([=A,=A]F[A,A] (3F[A,A]F) (3([=B,A]F[B,A] (3F[B,A]F) | %28
!<(! (3([C=A]=E[Cc] (3E[CA]E) (3([B,B]=D[B,A] (3E[B,_A]E)!<)! | %29
!p! (3([_A,_A]F[A,A] (3F[A,A]F) (3([B,A]F[B,A] (3_F[B,G]F) | %30
!<(! (3([A,A]E[A,A] (3E[A,A]E)!<)! (3([A,A]=D[A,A] (3D[A,A]D) | %31
 (3([A,A]_D!>(![A,A] (3D[A,A]D) (3([G,G]D[G,G] (3D-[G,-D-F][G,DE])!>)! | %32
!<(! (3z ([A,-C][A,CE]!<)!!>(! (3GFE)!>)! (3[CAc][CAc][CAc] (3[CAc][CAc][CAc] | %33
!mp!"_cresc.  e  agitato" (3[Ac][Ac][Ac] (3[Ac][Ac][Ac] (3[AB][AB][AB] (3[AB][AB][AB] | %34
 (3[CAc][CAc][CAc] (3[CAc][CAc][CAc] (3[DAd][DAd][DAd] (3[DAd][DAd][DAd] | %35
 (3[=DA=d][DAd][DAd] (3[DAd]"_accel."[DAd][DAd]!<(! (3[Ee][Ee][Ee] (3[EAe][EAe][EAe]!<)! | %36
!mf! (3[=EA=e][EAe][EAe] (3[EAe][EAe][EAe]!<(! ([Ff][^F^f][Gg][Aa])!<)! || %37
[K:F]!f! (3[Acfa][Acfa][Acfa] (3[Ff][Ff][Ff] (3[Fc][Fc][Fc] (3[Ff][Gg][Aa] | %38
 (3[Adfa][Adfa][Adfa] (3[FAf][FAf][FAf]!<(! (3[FAe][FAe][FAe] (3[FAd][Ff][Aa]!<)! | %39
!ff! !>![faf']!mf!!<(!!>![faf']!>![eae']!>![dad']!<)!!f! !>![Ada]!mf!!<(!!>![FAf] (3!>![EAe]!>![FAf]!>![DAd]!<)! | %40
!ff! !fermata![=B,FA]6"_colla voce""^sostenuto" z2 |!f! z (f"_dim."ed f2) (_e_d | %42
!>(! [Ff]2) (cB!>)!"_rit. e sempre" _d2) (_A_G) | z"_dim." ([=A,F]CD) ([CE]F)(A[Fc]) | %44
!pp! !tenuto!.[EAe] [EAe]2 [EAe]!>(! [Ff][Aa][cac'][ee']!>)! | %45
"_dolcissimo"!p!!>(! [gc'g']2 [ff'][ee'] [dfad']2!>)!!p!!<(! ([cc'][Aa]!<)! | %46
"_morendo"!>(! [Acg]2) (fd [A,FA]2) [A,FA]2-!>)! | !fermata![A,FA]8 |] %48
V:4
 z2 F4 [DF]2 | =E4 C4 | [G,D]4 (E,B,-B,D,) | C,E, C4- C2 |!ped! (B,,F, D2)!ped-up! C,B,-B,C, | %5
 (F,,C, A,4) (G,F,) | E,C-CE, (=D,=B,)(F,=D) | (E,G, E2)!ped! ([A,,E,]A, E2)!ped-up! | %8
 (_D,A, _D2)!ped! ([G,,=D,]G, =D2)!ped-up! | (C,G,=D!<(!!tenuto!.C =B,CG,C,)!<)! | %10
 [C,A,][C,A,] z [C,A,] [D,A,B,][D,A,B,] z [D,A,B,] | %11
 [_F,A,][F,A,] z [F,A,] [B,,F,A,][B,,F,A,] z [B,,F,A,] | %12
 [_C,_F,_C][C,F,C] z [C,F,C] [C,E,C][C,E,C] z [C,E,C] | %13
 [=D,A,=B,][D,A,B,] z [D,A,B,] [_D,A,B,][D,A,B,] z [D,,D,] | %14
!ped! [C,,C,] [C,A,C]3-!ped-up! [C,A,C][C,A,] z [C,A,] | %15
 [_C,A,][C,A,][C,A,][C,A,] [B,,B,][B,,B,][B,,=E,][B,,E,] | %16
 [=A,,F,][A,,F,] z [A,,F,] [A,,F,][A,,F,] z [A,,F,] | %17
 [_A,,^F,][A,,F,]"^rit." z [A,,F,] [G,,C,][G,,C,] z [_G,,C,] |!ped! [F,,C,]2 F4!ped-up! [DF]2 | %19
 !tenuto!.[C=E][CE][B,CE][B,CE] [=A,C][A,C] [_D,_A,_D]2 | %20
!ped! [=B,,,=B,,] [F,A,D]3!ped-up!!ped! [_B,,,_B,,]([A,D]E[A,D])!ped-up! || %21
[M:6/4]!ped! [A,,,A,,][A,,A,] z [A,,,A,,]!ped-up!!ped! [G,,,G,,][F,B,] z2!ped-up!!ped! C,,[C,B,] [C,B,]2!ped-up! || %22
[M:4/4]!ped! ([F,,C,]A,)[K:treble] [CFA]4!ped-up! [DFG]2 | %23
 [CFA]2 [B,FG]2!ped! [=B,FA]2 z2!ped-up! |[K:bass] z2 (D,4- [D,,D,]2) | %25
"_con Pedale"!ped! (3(F,,C,F,, (3C,F,,C,)!ped-up!!ped! (3(F,,=D,F,, (3D,F,,D,)!ped-up! | %26
!ped! (3(F,,=E,F,, (3E,F,,E,)!ped-up!!ped! (3(F,,C,F,, (3C,F,,C,)!ped-up! | %27
!ped! (3(F,,C,F,, (3C,F,,C,)!ped-up!!ped! (3(=D,,=D,D,, (3D,D,,D,)!ped-up! | %28
!ped! (3(=A,,=E,A,, (3E,A,,E,)!ped-up!!ped! (3(G,,F,G,, (3C,C,,C,)!ped-up! | %29
!ped! (3(D,,D,D,, (3D,D,,D, (3D,,D,D,, (3D,D,,D,)!ped-up! | %30
!ped! (3(C,,C,C,, (3C,C,,C,)!ped-up!!ped! (3(=B,,,=B,,B,,, (3B,,B,,,B,,)!ped-up! | %31
!ped! (3(_B,,,_B,,B,,, (3B,,B,,,B,,)!ped-up!!ped! (3(E,,B,,E,, (3E,E,,E,)!ped-up! | %32
!ped! (3(A,,E,A,, (3G,!ped-up!F,E,) z4 | %33
!ped! (3[C_F][CF][CF] (3[CF][CF][CF]!ped-up!!ped! (3[DF][DF][DF] (3[DF][DF][DF]!ped-up! | %34
!ped! (3z [_F,A,][F,A,] (3[F,A,][F,A,][F,A,]!ped-up!!ped! (3[B,,F,A,][B,,F,A,][B,,F,A,] (3[B,,F,A,][B,,F,A,][B,,F,A,]!ped-up! | %35
!ped! (3[_C,_F,_C][C,F,C][C,F,C] (3[C,F,C][C,F,C][C,F,C]!ped-up!!ped! (3[C,E,C][C,E,C][C,E,C] (3[C,E,C][C,E,C][C,E,C]!ped-up! | %36
!ped! (3[=D,A,=B,][D,A,B,][D,A,B,] (3[D,A,B,][D,A,B,][D,A,B,]!ped-up!!ped! (3[_D,A,B,][A,B,F][A,B,F] (3[A,B,F][A,B,F][A,B,F]!ped-up! || %37
[K:F]!ped! (3[C,,C,][A,C][A,C] (3[A,C][A,C][A,C] (3[A,C][A,C][A,C] [C,A,]2!ped-up! | %38
!ped! [=B,,,=B,,]2!ff! (3(B,,A,D) (3EEE [A,D]2!ped-up! | %39
!ped! !arpeggio!!>![G,,D,=B,][K:treble]!>![FA]!>![EFA]!>![DFA]!ped-up! !>![B,F][K:bass]!>![F,A,] (3!>![E,A,]!>![F,A,]!>![D,F,A,] | %40
 !fermata![G,,D,]6 z2 |!ped! z2 (ED F2)!ped-up! (_E_D) | z (F,CB,) z (_D,_A,_G,) | %43
!ped! C,, C,2 [C,A,]2!ped-up! [C,A,]2 [C,A,] | %44
 !tenuto!.[C,A,C] [C,A,C]2 [C,A,C] [G,B,D]2!ped! !arpeggio![C,B,E]2!ped-up! | %45
!ped! !arpeggio![F,,C,A,][K:treble]C- [CA]2- [CA] [CFA]3 | %46
 (GC!ped-up!FD)[K:bass] z!ped! (D,C,C,,) | !fermata!F,,,8!ped-up! |] %48
V:5
 x8 | (A2 G2- G2 F2) | F4 x4 | E4 =E2 F2 | x4 [D=E]2 C2 | A,2 C2 C4 | x8 | x6 =Bc | x8 | x8 | x8 | %11
 x8 | x8 | x8 | x2 [F-A]2 x4 | [DF][DF]DD DDDD | x8 | x8 | [A,=E]2 x6 | x8 | x4 A [_FA]2 [FA] || %21
[M:6/4] x12 ||[M:4/4] x6 [Bf]2 | x2 d2 x4 | x8 | x8 | x8 | x8 | x8 | x8 | x8 | x8 | x2 [A,C]2 x4 | %33
 x8 | x8 | x8 | x8 ||[K:F] x8 | x8 | x8 | x8 | x [FA]3 z [F_A]3 | F2- F2 _D2- D2 | x8 | x8 | x8 | %46
 x8 | x8 |] %48
V:6
 x8 | (C2 B,2 =A,2 _A,2) | x8 | C,6 D,2 | x4 C,3 C, | x8 | E,4 x4 | x8 | x8 | x8 | x8 | x8 | x8 | %13
 x8 | x8 | x8 | x8 | x8 | x8 | x8 | x8 ||[M:6/4] x12 ||[M:4/4] x2[K:treble] x6 | x8 |[K:bass] x8 | %25
 x8 | x8 | x8 | x8 | x8 | x8 | x8 | x8 | x8 | x8 | x8 | x8 ||[K:F] x8 | x8 | %39
 x[K:treble] x4[K:bass] x3 | x8 | [C,,C,] [F,A,]3 z [F,_A,]3 | x _D,3 x B,,3 | x8 | x8 | %45
 x[K:treble] x7 | x4[K:bass] x4 | x8 |] %48

